X:3
T:A coyer el trbole (JHM 005) (Arrg.)
R:Xiraldilla
C:Tradicional
S:Msica Tradicional Asturiana, (C) Tello & Tito. Asturies, 2002.
S:http://pagina.de/MusTradAst <telloytito@asturies.org>
A:Asturies
G:Arrg.
Z:Juan Hidalgo Montoya 005
M:2/4
L:1/8
Q:1/4=150
K:D
A|"D"Ad dd|d e2 d|"A7"c2 Bc|"D"d2 zA|
Ad dd|d e2 d|"A7"c2 Bc|"D"d2 zF|
"G"G>A BB|"D"(3B/c/B/ A2 F|"G"G>A BB|"D"(3B/c/B/ A2 F|"G"G>A BB|"D"BA AB|
"A"A2 G2|"D"F2 FG|A2 "Em7"B2|"A"A2 "D"Ad|"A7"c2 e2|"D"d z3|
[K:G]
|"G"B>c de|e>d Bd|"D7"d>c Ac|"G"ee d2|
B>c de|e>d Bd|"D7"d>c Ac|"G"B2 z2|
|B>c de|e>d Bd|"D7"d>c Ac|"G"ee d2|
B>c de|e>d Bd|"D7"d>c Ac|"G"B2 z2||
W:A lo alto y a lo bajo y a lo ligero,
W:a lo alto y a lo bajo y a lo ligero,
W:al uso de mi tierra, al uso de mi tierra,
W:al uso de mi tierra toco el pandero,
W:toco el pandero, toco el pandero.
W:
W:A coger el trbole y el trbole y el trbole
W:y a buscar el trbole la noche de San Juan.
W:A coger el trbole y el trbole y el trbole
W:y a buscar el trbole los mis amores van.
W:
